X: 253
M: C
L: 1/8
K: Em
V: 1
g>edc (B/c/d/B/) G>A | B>GAF BEE :|
|: e/f/ |\
gb gf/e/ (^d/e/f/d/) Be/f/ | gba>g fdde/f/ |\
g>bB>G AB/G/ {g}HFG/A/ | B>GA>F BEE :|
V: 2 clef=bass middle=d
z | eEe^d =dfaz | gfe^d eBEz | cc'bf gd Gz | egbB eBE :|
|: z | e'be^a bfBz | zd'c'b aAdz | e2gB c^c Hdz | egbB eBE :|


